X: 40198
T: Tin Wedding, The
R: hornpipe
M: 4/4
K: Dmajor
(3ABc|dAFA DEFA|GBEF GBAG|FAde f2 gf|edcB ABce|
dAFA DEFA|GBEF GBAG|(3FAF DF EA ce|d2 dc d2:|
cd|ecAc egfe|fdAd f2 ba|^gece g2 c'b|(3aba (3^gag =g2 (3gfe|
dAFA DEFA|GBEF GBAG|(3FAF DF EA ce|d2 dc d2:|

